src/cmd/sc_outlineexpand.svg

<?xml version="1.0" encoding="UTF-8" standalone="no"?>
<svg
   xmlns:dc="http://purl.org/dc/elements/1.1/"
   xmlns:cc="http://creativecommons.org/ns#"
   xmlns:rdf="http://www.w3.org/1999/02/22-rdf-syntax-ns#"
   xmlns:svg="http://www.w3.org/2000/svg"
   xmlns="http://www.w3.org/2000/svg"
   xmlns:sodipodi="http://sodipodi.sourceforge.net/DTD/sodipodi-0.dtd"
   xmlns:inkscape="http://www.inkscape.org/namespaces/inkscape"
   viewBox="0 0 16 16"
   version="1.1"
   id="svg6"
   sodipodi:docname="sc_outlineexpand.svg"
   inkscape:version="0.92.4 (5da689c313, 2019-01-14)">
  <metadata
     id="metadata12">
    <rdf:RDF>
      <cc:Work
         rdf:about="">
        <dc:format>image/svg+xml</dc:format>
        <dc:type
           rdf:resource="http://purl.org/dc/dcmitype/StillImage" />
      </cc:Work>
    </rdf:RDF>
  </metadata>
  <defs
     id="defs10" />
  <sodipodi:namedview
     pagecolor="#ffffff"
     bordercolor="#666666"
     borderopacity="1"
     objecttolerance="10"
     gridtolerance="10"
     guidetolerance="10"
     inkscape:pageopacity="0"
     inkscape:pageshadow="2"
     inkscape:window-width="1920"
     inkscape:window-height="1011"
     id="namedview8"
     showgrid="true"
     inkscape:zoom="29.5"
     inkscape:cx="5.819346"
     inkscape:cy="6.9772054"
     inkscape:window-x="0"
     inkscape:window-y="32"
     inkscape:window-maximized="1"
     inkscape:current-layer="svg6">
    <inkscape:grid
       type="xygrid"
       id="grid822" />
  </sodipodi:namedview>
  <path
     d="M 3,2 C 2.4477153,2 2,2.4477153 2,3 2,3.5522847 2.4477153,4 3,4 3.5522847,4 4,3.5522847 4,3 4,2.4477153 3.5522847,2 3,2 Z m 2,0 v 1 h 2 6 V 2 H 7 Z m 0,2 v 1 h 2 6 V 4 H 7 Z M 5,8 V 9 H 7 8 V 8 H 7 Z m 0,2 v 1 H 7 8 V 10 H 7 Z"
     id="path2"
     inkscape:connector-curvature="0"
     style="fill:#232629"
     sodipodi:nodetypes="ssssscccccccccccccccccccccccccccc" />
  <path
     d="m9 8v1 3h1 3v-3-1zm5 0v1 4h-3-1-1v1h1 1 4v-5-1z"
     fill="#762572"
     id="path4" />
</svg>

<svg viewBox="0 0 16 16" xmlns="http://www.w3.org/2000/svg"><path d="m3 2a1 1 0 0 0 -1 1 1 1 0 0 0 1 1 1 1 0 0 0 1-1 1 1 0 0 0 -1-1zm2 0v1h2 6v-1h-6zm0 2v1h2 4v-1h-4zm0 4v1h2 1v-1h-1zm0 2v1h2 1v-1h-1z" fill="#232629"/><path d="m9 8v1 3h1 3v-3-1zm5 0v1 4h-3-1-1v1h1 1 4v-5-1z" fill="#762572"/></svg>
